packages/ui/public/icons/profile-instagram-icon.svg

<svg viewBox="0 0 17 18" fill="none" xmlns="http://www.w3.org/2000/svg">
  <path d="M7.5 3.80664C5.375 3.80664 3.68164 5.5332 3.68164 7.625C3.68164 9.75 5.375 11.4434 7.5 11.4434C9.5918 11.4434 11.3184 9.75 11.3184 7.625C11.3184 5.5332 9.5918 3.80664 7.5 3.80664ZM7.5 10.1152C6.13867 10.1152 5.00977 9.01953 5.00977 7.625C5.00977 6.26367 6.10547 5.16797 7.5 5.16797C8.86133 5.16797 9.95703 6.26367 9.95703 7.625C9.95703 9.01953 8.86133 10.1152 7.5 10.1152ZM12.3477 3.67383C12.3477 4.17188 11.9492 4.57031 11.4512 4.57031C10.9531 4.57031 10.5547 4.17188 10.5547 3.67383C10.5547 3.17578 10.9531 2.77734 11.4512 2.77734C11.9492 2.77734 12.3477 3.17578 12.3477 3.67383ZM14.8711 4.57031C14.8047 3.375 14.5391 2.3125 13.6758 1.44922C12.8125 0.585938 11.75 0.320312 10.5547 0.253906C9.32617 0.1875 5.64062 0.1875 4.41211 0.253906C3.2168 0.320312 2.1875 0.585938 1.29102 1.44922C0.427734 2.3125 0.162109 3.375 0.0957031 4.57031C0.0292969 5.79883 0.0292969 9.48438 0.0957031 10.7129C0.162109 11.9082 0.427734 12.9375 1.29102 13.834C2.1875 14.6973 3.2168 14.9629 4.41211 15.0293C5.64062 15.0957 9.32617 15.0957 10.5547 15.0293C11.75 14.9629 12.8125 14.6973 13.6758 13.834C14.5391 12.9375 14.8047 11.9082 14.8711 10.7129C14.9375 9.48438 14.9375 5.79883 14.8711 4.57031ZM13.2773 12.0078C13.0449 12.6719 12.5137 13.1699 11.8828 13.4355C10.8867 13.834 8.5625 13.7344 7.5 13.7344C6.4043 13.7344 4.08008 13.834 3.11719 13.4355C2.45312 13.1699 1.95508 12.6719 1.68945 12.0078C1.29102 11.0449 1.39062 8.7207 1.39062 7.625C1.39062 6.5625 1.29102 4.23828 1.68945 3.24219C1.95508 2.61133 2.45312 2.11328 3.11719 1.84766C4.08008 1.44922 6.4043 1.54883 7.5 1.54883C8.5625 1.54883 10.8867 1.44922 11.8828 1.84766C12.5137 2.08008 13.0117 2.61133 13.2773 3.24219C13.6758 4.23828 13.5762 6.5625 13.5762 7.625C13.5762 8.7207 13.6758 11.0449 13.2773 12.0078Z" fill="white" fill-opacity="0.923" />
</svg>

<svg viewBox="0 0 17 18" fill="none" xmlns="http://www.w3.org/2000/svg"><path d="M7.5 3.807a3.819 3.819 0 0 0-3.818 3.818A3.798 3.798 0 0 0 7.5 11.443a3.819 3.819 0 0 0 3.818-3.818c0-2.092-1.726-3.818-3.818-3.818Zm0 6.308a2.487 2.487 0 0 1-2.49-2.49c0-1.361 1.095-2.457 2.49-2.457a2.451 2.451 0 0 1 2.457 2.457c0 1.395-1.096 2.49-2.457 2.49Zm4.848-6.441a.893.893 0 0 1-.897.896.893.893 0 0 1-.896-.896c0-.498.398-.897.896-.897s.897.399.897.897Zm2.523.896c-.066-1.195-.332-2.258-1.195-3.12C12.812.585 11.75.32 10.555.253 9.326.187 5.64.187 4.412.254 3.217.32 2.188.586 1.291 1.449.428 2.312.162 3.375.096 4.57.029 5.8.029 9.484.096 10.713c.066 1.195.332 2.225 1.195 3.121.897.863 1.926 1.129 3.121 1.195 1.229.067 4.914.067 6.143 0 1.195-.066 2.258-.332 3.12-1.195.864-.896 1.13-1.926 1.196-3.121.066-1.229.066-4.914 0-6.143Zm-1.594 7.438c-.232.664-.763 1.162-1.394 1.428-.996.398-3.32.298-4.383.298-1.096 0-3.42.1-4.383-.299a2.517 2.517 0 0 1-1.428-1.427c-.398-.963-.298-3.287-.298-4.383 0-1.063-.1-3.387.298-4.383a2.561 2.561 0 0 1 1.428-1.394c.963-.399 3.287-.3 4.383-.3 1.063 0 3.387-.099 4.383.3.63.232 1.129.763 1.394 1.394.399.996.3 3.32.3 4.383 0 1.096.099 3.42-.3 4.383Z" fill="#fff" fill-opacity=".923"/></svg>
